X:1
T:Title
%%score { ( 1 3 ) | ( 2 4 ) }
L:1/8
Q:1/4=108
M:3/4
K:Ab
V:1 treble nm="Grand Piano"
V:3 treble 
V:2 bass 
V:4 bass 
V:1
 [Ec]4 [=D_c]2 | [Ec]4 [EG]2 | B2 z2 z2 | E6 | E2 F2 G2 | B4 A2 | G2 z2 z2 | B6 | c4 z2 | %9
w: Caryl~Florio *|||||||||
 [Ec]4 [E_GA]2 | B2 z2 z2 | A4 z2 | c2 B2 F2 | e2 d2 [DFB]2 | E2- [Ec]2 B2 | [CA]6 |] %16
w: |||||||
V:2
 [A,,E,]4 [A,,F,]2 | [A,,E,]4 [C,E,]2 | [D,A,]4 [F,A,D]2 | [A,C]6 | [B,D]2- [F,B,D]2 [E,B,D]2 | %5
 [=E,G,D]4 [F,A,C]2 | z2 F2 [B,,A,]2 | E4 z2 | [A,,A,]4 [A,,F,]2 | [A,,E,]4 C,2 | z2 A2 F,2 | %11
 A,4 =A,2 | [B,DF]4 [B,D]2 | =A,2 B,2 D,2 | z2 A,2 [E,G,D]2 | [A,,A,]6 |] %16
V:3
 x6 | x6 | F2- [FA]2 F2 | x6 | x6 | x6 | [A,=D]4 [DB]2 | z2 z2 D2 | C2 E2 [=D_c]2 | x6 | %10
 [DF]4 [DAd]2 | [Ec]4- [E_Gc]2 | x6 | F4 z2 | [CA]2 z2 z2 | x6 |] %16
V:4
 x6 | x6 | x6 | x6 | G,2 z2 z2 | x6 | B,,4 z2 | [E,G,]6 | x6 | x6 | D,4 z2 | x6 | x6 | D,4 z2 | %14
 E,4 z2 | x6 |] %16

